X:2855
T:Blue bells of Scotland
C:anon.
O:Scotland
Z:Transcribed by Frank Nordberg - http://www.musicaviva.com
F:http://abc.musicaviva.com/tunes/scotland/blue-bells-of.abc
M:C
L:1/4
K:C
G|"C"c2"F"BA|"C"G2"F"A(B/c/)|"C"EE"G7"FD|"C"C3:|G|
"C"ECEG|"F"c2A(B/c/)|"G"BG"D7"A^F|"G7"G2AB|
"C"c2"F"BA|"C"G2"F"A(B/c/)|"C"EE"G7"FD|"C"C3|]
W:
W:
W:  From Musica Viva - http://www.musicaviva.com
W:  the Internet center for free sheet music downloads.
